X: 6876
T: Charms Of Whisky, The
R: reel
M: 4/4
K: Amixolydian
a|c2 BA AAAd|BGdG BdGd|c2 BA AAAd|BGBd e2 Aa|
c2 BA AAAd|BGdG BdGd|c2 BA AAcA|BGGB e2A||
a|cAeA ceAe|BGdG BdGd|cAeA ceAc|BGBd e2 Aa
cAeA ceAe|BGdG BdGd|cAeA fAed|BGGB e2A||

